packages/core/src/svgs/tokens/branded/SPX.svg

<svg width="24" height="24" viewBox="0 0 24 24" fill="none" xmlns="http://www.w3.org/2000/svg">
<path fill-rule="evenodd" clip-rule="evenodd" d="M12 21.4117C14.4961 21.4117 16.8901 20.4202 18.6551 18.6551C20.4202 16.89 21.4117 14.4961 21.4117 12C21.4117 9.50377 20.4202 7.10991 18.6551 5.34487C16.8901 3.57982 14.4961 2.58823 12 2.58823C9.5039 2.58823 7.10991 3.57982 5.34487 5.34487C3.57983 7.10991 2.58823 9.50377 2.58823 12C2.58823 14.4961 3.57983 16.89 5.34487 18.6551C7.10991 20.4202 9.5039 21.4117 12 21.4117ZM12 22C14.6522 22 17.1957 20.9464 19.0711 19.071C20.9464 17.1957 22 14.6522 22 12C22 9.34785 20.9464 6.80429 19.0711 4.92892C17.1957 3.05357 14.6522 2 12 2C9.34784 2 6.80429 3.05357 4.92892 4.92892C3.05357 6.80429 2 9.34785 2 12C2 14.6522 3.05357 17.1957 4.92892 19.071C6.80429 20.9464 9.34784 22 12 22Z" fill="url(#paint0_linear_364_929)"/>
<path d="M10.7468 12.1999L11.4527 16.0823C10.4633 15.9678 9.53632 15.5414 8.80563 14.8646C8.33504 14.4352 7.64093 14.2587 7.09974 14.5881C6.52327 14.9293 6.34681 15.6881 6.79386 16.1763C7.44085 16.8854 8.22595 17.4546 9.10096 17.8492C9.97595 18.2436 10.9225 18.455 11.8821 18.4705L12.0232 19.2645C12.0503 19.4167 12.1071 19.5621 12.1903 19.6924C12.2735 19.8226 12.3815 19.9352 12.5083 20.0237C12.635 20.1122 12.7779 20.1748 12.9288 20.208C13.0798 20.2414 13.2357 20.2445 13.388 20.2175C13.5402 20.1905 13.6855 20.1338 13.8158 20.0505C13.946 19.9673 14.0586 19.8593 14.1471 19.7326C14.2355 19.6057 14.2982 19.4629 14.3315 19.3119C14.3648 19.161 14.368 19.005 14.3409 18.8528L14.2115 18.1175C15.7914 17.5976 17.1369 16.5363 18.0108 15.1212C18.8846 13.706 19.2308 12.0276 18.988 10.3822C18.8351 9.31164 17.7409 8.74104 16.6703 8.91163C13.5938 9.40579 10.5174 9.85283 7.42916 10.3233C7.60033 9.60234 7.93939 8.93188 8.41871 8.36665C8.89804 7.80141 9.50406 7.35739 10.1875 7.07072C10.871 6.78405 11.6124 6.66284 12.3516 6.71697C13.0907 6.77111 13.8066 6.99905 14.441 7.38222C14.8939 7.65869 15.4586 7.73517 15.9174 7.48222C16.6233 7.09987 16.788 6.1587 16.135 5.68811C15.081 4.92617 13.8369 4.47026 12.5401 4.3707C11.2434 4.27112 9.94424 4.53177 8.78626 5.12386C7.62826 5.71595 6.65634 6.61646 5.97778 7.72601C5.29922 8.83557 4.9404 10.111 4.94092 11.4116C4.94092 12.3528 5.85269 12.9645 6.78798 12.8234C8.09974 12.6176 9.38795 12.4058 10.7468 12.1999ZM13.0763 11.8469L16.7057 11.3058V11.4116C16.7051 12.3454 16.4269 13.2578 15.9063 14.0331C15.3857 14.8081 14.6463 15.411 13.7822 15.7645L13.0763 11.8528V11.8469Z" fill="url(#paint1_linear_364_929)"/>
<defs>
<linearGradient id="paint0_linear_364_929" x1="2.29411" y1="12.8823" x2="22" y2="13.4706" gradientUnits="userSpaceOnUse">
<stop stop-color="#FD00FF"/>
<stop offset="1" stop-color="#0BF2FE"/>
</linearGradient>
<linearGradient id="paint1_linear_364_929" x1="7.0007" y1="7.58769" x2="17.2948" y2="14.9406" gradientUnits="userSpaceOnUse">
<stop stop-color="#0BF1FF"/>
<stop offset="1" stop-color="#F903FF"/>
</linearGradient>
</defs>
</svg>

<svg xmlns="http://www.w3.org/2000/svg" width="24" height="24" fill="none" viewBox="0 0 24 24">
    <path fill="url(#SPX__a)" fill-rule="evenodd" d="M12 21.412a9.411 9.411 0 1 0 0-18.823 9.411 9.411 0 0 0 0 18.823M12 22a10 10 0 1 0 0-20 10 10 0 0 0 0 20" clip-rule="evenodd"/>
    <path fill="url(#SPX__b)" d="m10.747 12.2.706 3.882a4.7 4.7 0 0 1-2.647-1.217c-.471-.43-1.165-.606-1.706-.277-.577.341-.753 1.1-.306 1.588a7.04 7.04 0 0 0 5.088 2.295l.141.794a1.18 1.18 0 0 0 1.365.953 1.175 1.175 0 0 0 .953-1.365l-.13-.736a7.06 7.06 0 0 0 4.777-7.735c-.153-1.07-1.247-1.641-2.318-1.47-3.076.494-6.153.94-9.24 1.411a4.706 4.706 0 0 1 7.011-2.94c.453.276 1.018.352 1.476.1.706-.383.871-1.324.218-1.795a7.058 7.058 0 0 0-11.194 5.724c0 .94.912 1.552 1.847 1.411 1.312-.205 2.6-.417 3.959-.623m2.33-.353 3.629-.541v.106a4.71 4.71 0 0 1-2.924 4.352l-.706-3.911z"/>
    <defs>
        <linearGradient id="SPX__a" x1="2.294" x2="22" y1="12.882" y2="13.471" gradientUnits="userSpaceOnUse">
            <stop stop-color="#FD00FF"/>
            <stop offset="1" stop-color="#0BF2FE"/>
        </linearGradient>
        <linearGradient id="SPX__b" x1="7.001" x2="17.295" y1="7.588" y2="14.941" gradientUnits="userSpaceOnUse">
            <stop stop-color="#0BF1FF"/>
            <stop offset="1" stop-color="#F903FF"/>
        </linearGradient>
    </defs>
</svg>
